outputs/icons/communication/block_round.svg

<svg xmlns="http://www.w3.org/2000/svg" width="1200" height="1200" fill="none"><g clip-path="url(#a)"><path fill="#000" d="M600 100c-276 0-500 224-500 500s224 500 500 500 500-224 500-500-224-500-500-500m0 900c-221 0-400-179-400-400 0-92.5 31.5-177.5 84.5-245L845 915.5c-67.5 53-152.5 84.5-245 84.5m315.5-155L355 284.5c67.5-53 152.5-84.5 245-84.5 221 0 400 179 400 400 0 92.5-31.5 177.5-84.5 245"/></g><defs><clipPath id="a"><path fill="#fff" d="M0 0h1200v1200H0z"/></clipPath></defs></svg>

<svg width="1200" height="1200" viewBox="0 0 1200 1200" fill="none" xmlns="http://www.w3.org/2000/svg"><g clip-path="url(#clip0_238_2783)"><path d="M600 100C324 100 100 324 100 600C100 876 324 1100 600 1100C876 1100 1100 876 1100 600C1100 324 876 100 600 100ZM600 1000C379 1000 200 821 200 600C200 507.5 231.5 422.5 284.5 355L845 915.5C777.5 968.5 692.5 1000 600 1000ZM915.5 845L355 284.5C422.5 231.5 507.5 200 600 200C821 200 1000 379 1000 600C1000 692.5 968.5 777.5 915.5 845Z" fill="black"/></g><defs><clipPath id="clip0_238_2783"><path width="24" fill="white" d="M0 0H1200V1200H0V0z"/></clipPath></defs></svg>
